X: 105203
T: GILLIE CALLUM
Q:"Strathspey."
R: Strathspey.
%R:strathspey
Z: 2017 by John Chambers <jc:trillian.mit.edu>
B: Kerr's Merrie Melodies v.1 p.5 s.2 #3
M: C
L: 1/16
K: A
|:\
vAA3 c3uA d4 (B3=G) | AA3 c3A e4 (c2A2) |\
e4 c2A2 d4 B2=G2 | AA3 c2e2 (dB3) e4 :|\
AA3 c2e2 =g4 (d2B2) | AA3 c2e2 a3b a3f |
=g3a g3e dg3 BG3 | AA3 c3e (dB3) e4 |\
AA3 c2e2 =g4 (d2B2) | AA3 c2e2 a3b a3f |\
=g3a g3e dg3 BG3 | A3A =g2e2 (dB3) e4 |]

%%sep 1 1 500
%%sep 1 1 500

